X: 19
T:Blue-Eyed Stranger, Headington 1
M:2/4
L:1/16
A:Headington
P:A(A2B2)4
K:C
P:A
Q:416
c2G2 G2cB|AGAB c2cd|e2g2 fedc|A3B c4||
P:B
cdef g2c2|agfe d2G2|cdef g2g2|e3f g4|
cdef g2c2|agfe d2cd|e2g2 fedc|A3B c4||
